X:178
T:reel Robin
Z:robin.beech@mcgill.ca
S:Veronique Plasse et Jean Desrochers Vices et Versa
M:4/4
L:1/8
K:A
E2F2 G2 |: A3c B2A2 | c3c BAFG | A3c B2A2 | c4 cBcd | e3f edcd |
B3B BAGA |1 B2d2 d2c2 | c3c BAFG :|2 B2d2 c2B2 | A3a faea |:
faea faea | b3b fbeb | fbeb afef | e3f afdf | e3f ecAc |
B3c BAGA |1 B2d2 d2c2 | c3a faea :|2 B2d2 c2B2 | A2E2F2G2 |]
